X: 712
T: Mai jindan
%%abc-version 2.0
%%abcx-abcm2ps-target-version 5.9.1 (29 Sep 2008)
%%abc-creator hum2abc beta
%%abcx-conversion-date 2013/10/02 07:52:30
%%abc-edited-by Helmut Schaffrath
%%humdrum-veritas 1622132170
%%humdrum-veritas-data 3802678729
%%continueall 1
%%barnumbers 0
L: 1/8
M: 2/4
K: G
d ed2 [I:setbarnb 1]| 
d ed2 | 
A B d A | 
G4 | 
E3G | 
A B A G | 
E G F E | 
D4 | 
A GA2 | 
zd2e | 
d3G | 
A B A E | 
D4 | 
d Bd2 | 
d ed2 | 
d e d B | 
d2G2 | 
B B F E | 
D4 |]  



